lite/images/sprite/ico-base/ico-ovrPlay.svg

<?xml version="1.0" encoding="utf-8"?>
<!DOCTYPE svg PUBLIC "-//W3C//DTD SVG 1.1//EN" "http://www.w3.org/Graphics/SVG/1.1/DTD/svg11.dtd">
<svg version="1.1" baseProfile="full"
 xmlns="http://www.w3.org/2000/svg"
 xmlns:xlink="http://www.w3.org/1999/xlink"
 xmlns:ev="http://www.w3.org/2001/xml-events" 
  height="99px" 
  width="99px" 
>
<path fill="rgb( 255, 255, 255 )"
 d="M49.704,11.7879999999996 C39.211,11.7879999999996 29.7089999999999,16.0429999999997 22.83,22.9210000000003 C15.952,29.8000000000002 11.697,39.3010000000004 11.697,49.7950000000001 C11.697,60.2879999999996 15.952,69.79 22.83,76.6679999999997 C29.7089999999999,83.5469999999996 39.211,87.8019999999997 49.704,87.8019999999997 C60.1980000000001,87.8019999999997 69.7,83.5469999999996 76.579,76.6679999999997 C83.4570000000001,69.79 87.712,60.2879999999996 87.712,49.7950000000001 C87.712,39.3010000000004 83.4570000000001,29.8000000000002 76.579,22.9210000000003 C69.7,16.0429999999997 60.1980000000001,11.7879999999996 49.704,11.7879999999996 C49.704,11.7879999999996 49.704,11.7879999999996 49.704,11.7879999999996 ZM15.083,15.174 C23.944,6.3119999999999 36.186,0.83100000000013 49.704,0.83100000000013 C63.223,0.83100000000013 75.4649999999999,6.3119999999999 84.326,15.174 C93.1869999999999,24.0349999999999 98.6690000000001,36.2759999999998 98.6690000000001,49.7950000000001 C98.6690000000001,63.3130000000001 93.1869999999999,75.5540000000001 84.326,84.4160000000002 C75.4649999999999,93.2780000000002 63.223,98.759 49.704,98.759 C36.186,98.759 23.944,93.2780000000002 15.083,84.4160000000002 C6.22199999999998,75.5540000000001 0.74000000000001,63.3130000000001 0.74000000000001,49.7950000000001 C0.74000000000001,36.2759999999998 6.22199999999998,24.0349999999999 15.083,15.174 Z "/>
<path fill="rgb( 255, 255, 255 )"
 d="M72.133,55.6809999999996 C68.5039999999999,58.6959999999999 46.3200000000001,74.9930000000004 46.3200000000001,74.9930000000004 C46.3200000000001,74.9930000000004 36.253,76.3959999999997 36.039,70.2529999999997 C35.825,64.1080000000002 36.02,31.8109999999997 36.02,31.8109999999997 C36.02,31.8109999999997 37.752,24.0119999999997 46.145,27.5110000000004 C50.183,30.4960000000001 72.6590000000001,47.9560000000001 72.6590000000001,47.9560000000001 C72.6590000000001,47.9560000000001 76.1469999999999,52.3450000000003 72.133,55.6809999999996 ZM45.78,39.5649999999996 C45.78,39.5649999999996 45.984,63.2640000000001 45.984,63.2640000000001 C45.984,63.2640000000001 61.3579999999999,51.4840000000004 61.3579999999999,51.4840000000004 C61.3579999999999,51.4840000000004 45.78,39.5649999999996 45.78,39.5649999999996 Z "/>
</svg>

<?xml version="1.0" encoding="utf-8"?><svg baseProfile="full" xmlns="http://www.w3.org/2000/svg" height="99" width="99"><path fill="rgb( 255, 255, 255 )" d="M49.704 11.788c-10.493 0-19.995 4.255-26.874 11.133-6.878 6.88-11.133 16.38-11.133 26.876 0 10.493 4.255 19.995 11.133 26.873 6.88 6.88 16.38 11.133 26.874 11.133S69.7 83.547 76.58 76.668c6.877-6.878 11.132-16.38 11.132-26.873 0-10.494-4.255-19.995-11.133-26.874-6.88-6.876-16.383-11.13-26.877-11.13zm-34.62 3.386C23.944 6.312 36.184.83 49.704.83c13.52 0 25.76 5.482 34.62 14.344 8.86 8.86 14.344 21.102 14.344 34.62 0 13.52-5.483 25.76-14.344 34.622-8.86 8.862-21.103 14.343-34.622 14.343-13.518 0-25.76-5.483-34.62-14.345C6.22 75.555.74 63.313.74 49.795c0-13.52 5.482-25.76 14.343-34.62zm57.05 40.506c-3.63 3.016-25.814 19.313-25.814 19.313s-10.067 1.403-10.28-4.74c-.215-6.145-.02-38.442-.02-38.442s1.732-7.797 10.125-4.3c4.038 2.987 26.514 20.447 26.514 20.447s3.486 4.39-.528 7.725zM45.78 39.566s.204 23.7.204 23.7 15.374-11.78 15.374-11.78-15.578-11.92-15.578-11.92z"/></svg>
